src/assets/icons/letters,simple,serif-h.svg

<svg width="48" height="48" viewBox="0 0 48 48" fill="none" xmlns="http://www.w3.org/2000/svg">
<rect opacity="0.2" x="5" y="5" width="38" height="38" rx="4" fill="black"/>
<path d="M33.9703 31.17C33.9703 31.93 34.0003 32.55 34.0603 33.03C34.1403 33.49 34.2903 33.85 34.5103 34.11C34.7503 34.35 35.0703 34.52 35.4703 34.62C35.8903 34.72 36.4403 34.78 37.1203 34.8V36H26.1103V34.8C26.8503 34.78 27.4403 34.72 27.8803 34.62C28.3403 34.52 28.6903 34.35 28.9303 34.11C29.1903 33.87 29.3603 33.53 29.4403 33.09C29.5203 32.65 29.5603 32.08 29.5603 31.38V25.11H18.4303V31.17C18.4303 31.93 18.4703 32.55 18.5503 33.03C18.6303 33.49 18.7903 33.85 19.0303 34.11C19.2703 34.35 19.6103 34.52 20.0503 34.62C20.5103 34.72 21.1103 34.78 21.8503 34.8V36H10.8703V34.8C11.5503 34.78 12.0903 34.72 12.4903 34.62C12.9103 34.52 13.2303 34.35 13.4503 34.11C13.6703 33.87 13.8203 33.53 13.9003 33.09C13.9803 32.65 14.0203 32.08 14.0203 31.38V17.52C14.0203 16.82 13.9803 16.26 13.9003 15.84C13.8403 15.4 13.7103 15.06 13.5103 14.82C13.3103 14.56 13.0203 14.39 12.6403 14.31C12.2803 14.21 11.8003 14.14 11.2003 14.1V12.9H21.5503V14.1C20.8703 14.12 20.3203 14.18 19.9003 14.28C19.5003 14.38 19.1903 14.56 18.9703 14.82C18.7503 15.08 18.6003 15.44 18.5203 15.9C18.4603 16.36 18.4303 16.97 18.4303 17.73V23.25H29.5603V17.52C29.5603 16.82 29.5203 16.26 29.4403 15.84C29.3603 15.4 29.2103 15.06 28.9903 14.82C28.7703 14.56 28.4503 14.39 28.0303 14.31C27.6303 14.21 27.0903 14.14 26.4103 14.1V12.9H36.7903V14.1C36.1903 14.12 35.7003 14.18 35.3203 14.28C34.9603 14.38 34.6803 14.56 34.4803 14.82C34.2803 15.08 34.1403 15.44 34.0603 15.9C34.0003 16.36 33.9703 16.97 33.9703 17.73V31.17Z" fill="black"/>
</svg>

<svg xmlns="http://www.w3.org/2000/svg" width="48" height="48" fill="none" viewBox="0 0 48 48">
  <rect width="38" height="38" x="5" y="5" fill="#000" opacity=".2" rx="4"/>
  <path fill="#000" d="M33.97 31.17c0 .76.03 1.38.09 1.86.08.46.23.82.45 1.08.24.24.56.41.96.51.42.1.97.16 1.65.18V36H26.11v-1.2c.74-.02 1.33-.08 1.77-.18.46-.1.81-.27 1.05-.51.26-.24.43-.58.51-1.02.08-.44.12-1.01.12-1.71v-6.27H18.43v6.06c0 .76.04 1.38.12 1.86.08.46.24.82.48 1.08.24.24.58.41 1.02.51.46.1 1.06.16 1.8.18V36H10.87v-1.2c.68-.02 1.22-.08 1.62-.18.42-.1.74-.27.96-.51.22-.24.37-.58.45-1.02.08-.44.12-1.01.12-1.71V17.52c0-.7-.04-1.26-.12-1.68-.06-.44-.19-.78-.39-1.02-.2-.26-.49-.43-.87-.51-.36-.1-.84-.17-1.44-.21v-1.2h10.35v1.2c-.68.02-1.23.08-1.65.18-.4.1-.71.28-.93.54-.22.26-.37.62-.45 1.08-.06.46-.09 1.07-.09 1.83v5.52h11.13v-5.73c0-.7-.04-1.26-.12-1.68-.08-.44-.23-.78-.45-1.02-.22-.26-.54-.43-.96-.51-.4-.1-.94-.17-1.62-.21v-1.2h10.38v1.2c-.6.02-1.09.08-1.47.18-.36.1-.64.28-.84.54-.2.26-.34.62-.42 1.08-.06.46-.09 1.07-.09 1.83v13.44z"/>
</svg>
